T: Soldier's Joy
M: 4/4
L: 1/8
K: Dmaj
A2 F2 ABAB | A2 d2 d2 cB | A2 F2 ABAB | A2 G2 F2 ED |A2 F2 ABAB | A2 d2 d2 e2 | f2 a2 gfge |d2 c2 dBAD :|g2 | f2 de f2 f2 | edcd ef g2 | f2 de f2 B2 | edcB A2 F2 |f2 de f2 f2 | edcd ef g2 | f2 a2 gfge | d2 c2 d2 :||
